assets/encircle-divide-fill.svg

<svg xmlns="http://www.w3.org/2000/svg" fill="none" viewBox="0 0 28 28">
  <path fill="#2A2238" fill-rule="evenodd" d="M23.8995 23.8995c5.4673-5.4673 5.4673-14.33165 0-19.79899s-14.33166-5.46735-19.799 0c-5.46733 5.46734-5.46733 14.33169 0 19.79899 5.46734 5.4673 14.3317 5.4673 19.799 0Zm-16.08668-4.773c-.2929.2929-.2929.7678 0 1.0607.29289.2929.76776.2929 1.06066 0L19.4801 9.58058c.2929-.29289.2929-.76776 0-1.06066-.2929-.29289-.7678-.29289-1.0607 0L7.81282 19.1265ZM12 10.5c0 .8284-.6716 1.5-1.5 1.5-.82847 0-1.50004-.6716-1.50004-1.5 0-.82843.67157-1.5 1.50004-1.5.8284 0 1.5.67157 1.5 1.5Zm5.5 8.5c.8284 0 1.5-.6716 1.5-1.5s-.6716-1.5-1.5-1.5c-.8285 0-1.5.6716-1.5 1.5s.6715 1.5 1.5 1.5Z" clip-rule="evenodd"/>
</svg>

<svg width="28" height="28" viewBox="0 0 28 28" fill="none" xmlns="http://www.w3.org/2000/svg">
<path fill-rule="evenodd" clip-rule="evenodd" d="M23.8995 23.8995C29.3668 18.4322 29.3668 9.56785 23.8995 4.10051C18.4322 -1.36683 9.56784 -1.36684 4.1005 4.10051C-1.36683 9.56785 -1.36683 18.4322 4.1005 23.8995C9.56784 29.3668 18.4322 29.3668 23.8995 23.8995ZM7.81282 19.1265C7.51992 19.4194 7.51992 19.8943 7.81282 20.1872C8.10571 20.4801 8.58058 20.4801 8.87348 20.1872L19.4801 9.58058C19.773 9.28769 19.773 8.81282 19.4801 8.51992C19.1872 8.22703 18.7123 8.22703 18.4194 8.51992L7.81282 19.1265ZM12 10.5C12 11.3284 11.3284 12 10.5 12C9.67153 12 8.99996 11.3284 8.99996 10.5C8.99996 9.67157 9.67153 9 10.5 9C11.3284 9 12 9.67157 12 10.5ZM17.5 19C18.3284 19 19 18.3284 19 17.5C19 16.6716 18.3284 16 17.5 16C16.6715 16 16 16.6716 16 17.5C16 18.3284 16.6715 19 17.5 19Z" fill="#2A2238"/>
</svg>
